.icons/oomox-ad/32x32/apps/reddit.svg

<svg xmlns="http://www.w3.org/2000/svg" width="32" height="32" version="1.1">
 <circle style="opacity:0.2" cx="16" cy="17" r="14"/>
 <circle style="fill:#ff5836" cx="16" cy="16" r="14"/>
 <path style="opacity:0.2" d="M 17.007586,8.0014361 A 0.50003872,0.49994957 0 0 0 16.505645,8.4291172 L 15.648243,14.01391 A 7.9998201,5.4988951 0 0 0 10.400314,15.576092 1.9999551,1.9995985 0 0 0 8.9999551,15.002021 1.9999551,1.9995985 0 0 0 7,17.001593 1.9999551,1.9995985 0 0 0 8.0781007,18.774667 7.9998201,5.4988951 0 0 0 7.9999757,19.501099 7.9998201,5.4988951 0 0 0 15.999796,25 a 7.9998201,5.4988951 0 0 0 7.99982,-5.498901 7.9998201,5.4988951 0 0 0 -0.08008,-0.724466 1.9999551,1.9995985 0 0 0 1.080053,-1.77504 1.9999551,1.9995985 0 0 0 -1.999955,-1.999572 1.9999551,1.9995985 0 0 0 -1.404265,0.576035 7.9998201,5.4988951 0 0 0 -4.941295,-1.556323 l 0.759748,-4.9130798 2.599552,0.5780004 A 1.4999662,1.4996988 0 0 0 21.499673,11.002799 1.4999662,1.4996988 0 0 0 22.999639,9.5031189 1.4999662,1.4996988 0 0 0 21.499673,8.0034011 1.4999662,1.4996988 0 0 0 20.230171,8.7064032 L 17.1111,8.0151153 A 0.50003872,0.49994957 0 0 0 17.007585,8 Z m -3.507732,9.0001569 a 1.4999662,1.4996988 0 0 1 1.499966,1.499719 1.4999662,1.4996988 0 0 1 -1.499966,1.499679 1.4999662,1.4996988 0 0 1 -1.499966,-1.499679 1.4999662,1.4996988 0 0 1 1.499966,-1.499719 z m 4.999887,0 a 1.4999662,1.4996988 0 0 1 1.499966,1.499719 1.4999662,1.4996988 0 0 1 -1.499966,1.499679 1.4999662,1.4996988 0 0 1 -1.499966,-1.499679 1.4999662,1.4996988 0 0 1 1.499966,-1.499719 z m 0.972634,4.981438 a 0.50177424,0.50168478 0 0 1 0.398429,0.853322 c 0,0 -0.327564,0.347269 -0.95115,0.634644 -0.623588,0.287186 -1.581518,0.553816 -2.931576,0.531144 -1.342274,-0.02268 -2.283148,-0.288321 -2.900324,-0.560429 -0.617176,-0.272072 -0.945292,-0.591681 -0.945292,-0.591681 a 0.50003872,0.49994957 0 0 1 0.310542,-0.855286 0.50003872,0.49994957 0 0 1 0.04883,-0.002 0.50003872,0.49994957 0 0 1 0.357415,0.156063 c 0,0 0.142541,0.159843 0.634751,0.376744 0.49221,0.216902 1.297499,0.4499 2.517521,0.472535 1.212239,0.0189 2.000473,-0.211611 2.486273,-0.435427 0.485801,-0.223703 0.628891,-0.398358 0.628891,-0.398358 a 0.50177424,0.50168478 0 0 1 0.345695,-0.181759 z"/>
 <path style="fill:#ffffff" d="M 17.007587,7.0000512 A 0.50003871,0.49999102 0 0 0 16.505645,7.427735 l -0.857402,5.585279 A 7.9998199,5.4993512 0 0 0 10.400314,14.57533 1.9999551,1.9997644 0 0 0 8.9999549,14.001179 1.9999551,1.9997644 0 0 0 7,16.000943 1.9999551,1.9997644 0 0 0 8.0781007,17.774172 7.9998199,5.4993512 0 0 0 7.9999777,18.500648 7.9998199,5.4993512 0 0 0 15.999797,24 a 7.9998199,5.4993512 0 0 0 7.99982,-5.499352 7.9998199,5.4993512 0 0 0 -0.08008,-0.724523 1.9999551,1.9997644 0 0 0 1.080054,-1.775182 1.9999551,1.9997644 0 0 0 -1.999955,-1.999764 1.9999551,1.9997644 0 0 0 -1.404266,0.576104 7.9998199,5.4993512 0 0 0 -4.941294,-1.556458 l 0.759747,-4.9134826 2.599552,0.5780569 A 1.4999662,1.4998232 0 0 0 21.499673,10.00165 1.4999662,1.4998232 0 0 0 22.99964,8.5018272 1.4999662,1.4998232 0 0 0 21.499673,7.002004 1.4999662,1.4998232 0 0 0 20.230171,7.7050461 L 17.1111,7.0137214 a 0.50003871,0.49999102 0 0 0 -0.103513,-0.01367 z m -3.507733,9.0008918 a 1.4999662,1.4998232 0 0 1 1.499966,1.499823 1.4999662,1.4998232 0 0 1 -1.499966,1.499823 1.4999662,1.4998232 0 0 1 -1.499967,-1.499823 1.4999662,1.4998232 0 0 1 1.499967,-1.499823 z m 4.999887,0 a 1.4999662,1.4998232 0 0 1 1.499966,1.499823 1.4999662,1.4998232 0 0 1 -1.499966,1.499823 1.4999662,1.4998232 0 0 1 -1.499966,-1.499823 1.4999662,1.4998232 0 0 1 1.499966,-1.499823 z m 0.972634,4.981835 a 0.50177426,0.50172641 0 0 1 0.398429,0.853415 c 0,0 -0.327565,0.34748 -0.95115,0.63469 -0.623587,0.287286 -1.581518,0.553862 -2.931575,0.531187 -1.342275,-0.02294 -2.283149,-0.288386 -2.900325,-0.56048 -0.617176,-0.271905 -0.945292,-0.591728 -0.945292,-0.591728 a 0.50003871,0.49999102 0 0 1 0.31054,-0.855367 0.50003871,0.49999102 0 0 1 0.04883,-0.002 0.50003871,0.49999102 0 0 1 0.357414,0.156231 c 0,0 0.142542,0.159989 0.634752,0.376909 0.49221,0.216919 1.297498,0.449925 2.517521,0.4726 1.212239,0.02071 2.000472,-0.211774 2.486272,-0.435496 0.485801,-0.223608 0.628892,-0.398391 0.628892,-0.398391 a 0.50177426,0.50172641 0 0 1 0.345695,-0.181618 z"/>
 <path style="opacity:0.2;fill:#ffffff" d="M 15.999999,2.0021544 A 14,13.999685 0 0 0 2,16.001839 14,13.999685 0 0 0 2.0214844,16.587764 14,13.999685 0 0 1 15.999999,3.0021319 14,13.999685 0 0 1 29.978515,16.415892 14,13.999685 0 0 0 30,16.001839 14,13.999685 0 0 0 15.999999,2.0021544 Z"/>
</svg>

<svg xmlns="http://www.w3.org/2000/svg" width="32" height="32" version="1.1" viewBox="0 0 8.47 8.47">
 <g transform="translate(0,-288.53332)">
  <circle style="opacity:0.2" cx="4.233" cy="293.031" r="3.704"/>
  <circle style="fill:#ff5836" cx="4.233" cy="292.767" r="3.704"/>
  <path style="opacity:0.2" d="m 4.4999835,290.64946 a 0.13230489,0.13230489 0 0 0 -0.1328084,0.11318 l -0.2268593,1.47794 a 2.1166667,1.4552082 0 0 0 -1.3885457,0.41341 0.52916669,0.52916669 0 0 0 -0.3705201,-0.15192 0.52916669,0.52916669 0 0 0 -0.5291667,0.52916 0.52916669,0.52916669 0 0 0 0.2852539,0.46922 2.1166667,1.4552082 0 0 0 -0.020671,0.19224 2.1166667,1.4552082 0 0 0 2.1166667,1.45521 2.1166667,1.4552082 0 0 0 2.1166666,-1.45521 2.1166667,1.4552082 0 0 0 -0.021187,-0.19172 0.52916669,0.52916669 0 0 0 0.2857706,-0.46974 0.52916669,0.52916669 0 0 0 -0.5291666,-0.52916 0.52916669,0.52916669 0 0 0 -0.3715536,0.15244 2.1166667,1.4552082 0 0 0 -1.3074136,-0.41186 l 0.2010211,-1.30018 0.6878135,0.15296 a 0.396875,0.396875 0 0 0 0.3932576,0.3483 0.396875,0.396875 0 0 0 0.396875,-0.39687 0.396875,0.396875 0 0 0 -0.396875,-0.39688 0.396875,0.396875 0 0 0 -0.3358967,0.18604 L 4.527372,290.65308 a 0.13230489,0.13230489 0 0 0 -0.027389,-0.004 z m -0.9281085,2.38177 a 0.396875,0.396875 0 0 1 0.396875,0.39688 0.396875,0.396875 0 0 1 -0.396875,0.39687 0.396875,0.396875 0 0 1 -0.396875,-0.39687 0.396875,0.396875 0 0 1 0.396875,-0.39688 z m 1.3229166,0 a 0.396875,0.396875 0 0 1 0.396875,0.39688 0.396875,0.396875 0 0 1 -0.396875,0.39687 0.396875,0.396875 0 0 1 -0.396875,-0.39687 0.396875,0.396875 0 0 1 0.396875,-0.39688 z m 0.2573486,1.31827 a 0.13276409,0.13276409 0 0 1 0.10542,0.22582 c 0,0 -0.08667,0.0919 -0.2516642,0.16795 -0.1649945,0.076 -0.4184526,0.14656 -0.7756634,0.14056 -0.3551515,-0.006 -0.6040966,-0.0763 -0.7673948,-0.14831 -0.1632982,-0.072 -0.2501141,-0.15658 -0.2501141,-0.15658 a 0.13230489,0.13230489 0 0 1 0.082166,-0.22634 0.13230489,0.13230489 0 0 1 0.012919,-5.2e-4 0.13230489,0.13230489 0 0 1 0.094568,0.0413 c 0,0 0.037715,0.0423 0.1679485,0.0997 0.1302334,0.0574 0.3433042,0.11906 0.6661091,0.12505 0.3207454,0.005 0.5293035,-0.056 0.657841,-0.11523 0.1285377,-0.0592 0.166398,-0.10542 0.166398,-0.10542 a 0.13276409,0.13276409 0 0 1 0.091467,-0.0481 z"/>
  <path style="fill:#ffffff" transform="matrix(0.26458333,0,0,0.26458333,0,288.53332)" d="M 17.007812 6.9980469 A 0.50004997 0.50004997 0 0 0 16.505859 7.4257812 L 15.648438 13.011719 A 8.0000001 5.4999996 0 0 0 10.400391 14.574219 A 2.0000001 2.0000001 0 0 0 9 14 A 2.0000001 2.0000001 0 0 0 7 16 A 2.0000001 2.0000001 0 0 0 8.078125 17.773438 A 8.0000001 5.4999996 0 0 0 8 18.5 A 8.0000001 5.4999996 0 0 0 16 24 A 8.0000001 5.4999996 0 0 0 24 18.5 A 8.0000001 5.4999996 0 0 0 23.919922 17.775391 A 2.0000001 2.0000001 0 0 0 25 16 A 2.0000001 2.0000001 0 0 0 23 14 A 2.0000001 2.0000001 0 0 0 21.595703 14.576172 A 8.0000001 5.4999996 0 0 0 16.654297 13.019531 L 17.414062 8.1054688 L 20.013672 8.6835938 A 1.5 1.5 0 0 0 21.5 10 A 1.5 1.5 0 0 0 23 8.5 A 1.5 1.5 0 0 0 21.5 7 A 1.5 1.5 0 0 0 20.230469 7.703125 L 17.111328 7.0117188 A 0.50004997 0.50004997 0 0 0 17.007812 6.9980469 z M 13.5 16 A 1.5 1.5 0 0 1 15 17.5 A 1.5 1.5 0 0 1 13.5 19 A 1.5 1.5 0 0 1 12 17.5 A 1.5 1.5 0 0 1 13.5 16 z M 18.5 16 A 1.5 1.5 0 0 1 20 17.5 A 1.5 1.5 0 0 1 18.5 19 A 1.5 1.5 0 0 1 17 17.5 A 1.5 1.5 0 0 1 18.5 16 z M 19.472656 20.982422 A 0.50178556 0.50178556 0 0 1 19.871094 21.835938 C 19.871094 21.835938 19.543522 22.183459 18.919922 22.470703 C 18.296321 22.758023 17.338369 23.02463 15.988281 23.001953 C 14.645976 22.979011 13.705081 22.713532 13.087891 22.441406 C 12.470701 22.169469 12.142578 21.849609 12.142578 21.849609 A 0.50004997 0.50004997 0 0 1 12.453125 20.994141 A 0.50004997 0.50004997 0 0 1 12.501953 20.992188 A 0.50004997 0.50004997 0 0 1 12.859375 21.148438 C 12.859375 21.148438 13.00192 21.308446 13.494141 21.525391 C 13.986362 21.742336 14.791669 21.97537 16.011719 21.998047 C 17.223985 22.018759 18.012236 21.786248 18.498047 21.5625 C 18.983859 21.338865 19.126953 21.164062 19.126953 21.164062 A 0.50178556 0.50178556 0 0 1 19.472656 20.982422 z"/>
  <path style="opacity:0.2;fill:#ffffff" transform="matrix(0.26458333,0,0,0.26458333,0,288.53332)" d="M 16 2 A 14 14 0 0 0 2 16 A 14 14 0 0 0 2.0214844 16.585938 A 14 14 0 0 1 16 3 A 14 14 0 0 1 29.978516 16.414062 A 14 14 0 0 0 30 16 A 14 14 0 0 0 16 2 z"/>
 </g>
</svg>
